!!!!SEGMENT: pl-kc--40102-iii-1-saf--002-036_zielenski-mikolaj--communiones-totius-anni-in-festo-omnium-sanctorum-beati-mundo-corde.krn
!!!cenid: 16xx:1567
!!!COM: Zieleński, Mikołaj
!!!COM-rismid: pe30013481
!!!CDT: <1611->1611
!!!CNT: Polish
!!!GTL: Communiones totius anni
!!!OTL: In festo Omnium Sanctorum/Beati mundo corde
!!!OMV: 036
!!!PDT: 1611
!!!AGN:
!!!SMS-siglum: PL-Kc
!!!SMS-shelfmark: 40102 III/1 Saf.
!!!SMS-shelfwork: 002-036 G
!!!SMS-variant:
!!!SMS-altvar:
!!!NIFC-rismid: 990069887
!!!URL-scan: https://cyfrowe.mnk.pl/dlibra/publication/24235/edition/23926/content?ref=desc
!!!ONB-nifc: UWAGA: str. 62-63. Numer w źródle: 42. Uwaga: W xml metrum 2/1 do źródłowego C| i odpowiednio 3/1 do 3/2
!!!AIN: 4 organ
!!!key:
**kern	**kern	**kern	**kern
*part4	*part3	*part2	*part1
*staff4	*staff3	*staff2	*staff1
*I"	*I"	*I"	*I"Organo
*I'	*I'	*I'	*I'org
*Iorgan	*Iorgan	*Iorgan	*Iorgan
*ICklav	*ICklav	*ICklav	*ICklav
*clefF5	*clefF4	*clefC4	*clefC3
*k[b-]	*k[b-]	*k[b-]	*k[b-]
*g:	*g:	*g:	*g:
*M2/1	*M2/1	*M2/1	*M2/1
*met(C|)	*met(C|)	*met(C|)	*met(C|)
=1	=1	=1	=1
!	!	!	!LO:TX:a:t=42. In feſto Omnium Sanƈtorum con quattro Tromboni,& Cantori
!	!	!	!LO:TX:b:t=Beati mundo corde.
1.DD	1.D	1.A	1d
.	.	.	1.f
1D\	1F\	4D/	.
.	.	4E/	.
=2-	=2-	=2-	=2-
.	.	4F/	.
.	.	4D/	.
2BB-/	2D/	2d\	2f\
2BB-/	2D/	2d\	2g\
2C\	4E\	2c\	2g\
.	4G\	.	.
=3	=3	=3	=3
1AA	4G\	1c	1a
.	8F#X\	.	.
.	8E\	.	.
.	2F#\	.	.
1GG	4G\	4B-\	4d\
.	2GG/	2B-\	2d\
.	4GG/	4B-\	4d\
=4-	=4-	=4-	=4-
0r	2GG/	2B-\	2d\
.	2E\	2G/	2g\
.	4BB-/	4d\	4f\
.	2C/	4.c\	2e-X\
.	.	8B-\	.
.	[4D/	[4A/	[<4d\
=5	=5	=5	=5
1r	4D/]	4A/]	4d\]
.	4GG/	4B-\	4g\
.	2D/	2A/	2f#X\
2r	2GG/	2G/	2g\
2.DD/	2.D/	2.F/	2.a\
=6-	=6-	=6-	=6-
.	.	.	.
4DD/	4D/	4F/	4a\
2DD/	2D/	4D/	2a\
.	.	4.d\	.
2AA/	2E\	.	2a\
.	.	16c\	.
.	.	16B-\	.
.	.	4c\	.
4DD/	4D/	4d\	4fny\
!	!	!LO:N:acc=#	!
[4GG/	[4D/	[<4Bn\	[<4g\
=7	=7	=7	=7
4GG/]	4D/]	4B\]	4g\]
2CC/	2C/	2c\	2g\
4CC/	4C/	4c\	4g\
2FF/	2C/	2c\	2a\
4BB-/	4D/	4B-yX\	4f\
2BB-/	2D/	2F/	2f\
=8-	=8-	=8-	=8-
.	.	.	.
2GG/	2D/	2B-\	2g\
4DD/	4D/	2A/	4f\
1AA	4C#X/	.	4e\
.	4D/	4.d\	4f\
.	2E\	.	2e\
.	.	16c#X\	.
!	!	!LO:SIC:v:s=16bN\	!
.	.	16B-\	.
.	.	4c#\	.
=9	=9	=9	=9
00DD	0D	2d\	1d
.	.	2A/	.
.	.	2.F/	2r
.	.	.	2a\
.	.	4G/	.
=10-	=10-	=10-	=10-
.	1.D	2A/	2.f\
.	.	2B-\	.
.	.	.	4g\
.	.	[y1A	4a\
.	.	.	4g\
.	2D/	.	4f\
.	.	.	4e\
=11	=11	=11	=11
!	!	!LO:N:vis=4:xstem:cue	!
0r	2.BB-/	2A\]	2d\
.	.	1B-	1g
.	4C/	.	.
.	1D	.	.
.	.	2A/	2f\
=12-	=12-	=12-	=12-
2r	1.A	[y0c	1e
2AA/	.	.	.
2.FF/	.	.	2r
.	2AA/	.	2a\
4GG/	.	.	.
=13	=13	=13	=13
!	!	!LO:N:vis=4:xstem:cue	!
2AA/	2C/	1c]	2.f\
2BB-/	2D/	.	.
.	.	.	4g\
1FF	2C/	2d\	4a\
.	.	.	4g\
!	!	!	!LO:TX:t=P:problem=nad nutą wpisana poprawna wartość
!	!	!	!LO:N:vis=4
.	2F\	2.A/	2f\
=14-	=14-	=14-	=14-
!	!	!	!LO:TX:t=P:problem=nad nutą wpisana poprawna wartość
!	!	!	!LO:N:vis=4
0CC	2G\	.	2e\
.	.	4B-\	.
.	1A	2c\	4c\
.	.	.	4d\
.	.	2c\	4e\
.	.	.	4c\
.	4G\	[<2c\	4f\
.	4F\	.	[<4f\
=15	=15	=15	=15
1CC	2G\	2c\]	4f\]
.	.	.	8e\
.	.	.	8d\
.	2G\	2c\	2e\
1FF	2F\	2c\	2f\
.	2.F\	2.c\	2.a\
=16-	=16-	=16-	=16-
2r	.	.	.
.	4F\	4c\	4a\
2.FF/	1C	2c\	2a\
.	.	2.A/	1f
4FF/	.	.	.
2FF/	2D/	.	.
.	.	8G/	.
.	.	8F/	.
=17	=17	=17	=17
1CC	2E\	4c\	1g
.	.	8B-\	.
.	.	8A\	.
.	4D/	4G/	.
.	4C/	4A/	.
2GG/	2D/	4B-\	2g\
.	.	4A/	.
2GG/	2D/	4B-\	2d\
.	.	4c\	.
=18-	=18-	=18-	=18-
4DD/	2A\	2d\	1f
4EE/	.	.	.
4FF/	2.A\	2d\	.
4DD/	.	.	.
2AA/	.	2c\	2e\
.	4AA/	.	.
[2AA/	4C/	2c\	2e\
.	4D/	.	.
=19	=19	=19	=19
2AA/]	4E\	2c\	2e\
.	4F\	.	.
2AA/	1E	1c	1a
0EE	.	.	.
!	!	!LO:N:acc=#	!
.	2E\	4Bni\	4g#X\
.	.	4A/	4f\
=20-	=20-	=20-	=20-
!	!	!LO:N:acc=#	!
.	1E	1Bni	1g#yX
!	!	!LO:N:acc=#	!
2AA/	2E\	2c#Xi\	1a
2D\	2F\	2d\	.
=21	=21	=21	=21
1BB-	4D/	1.d	00r
.	4E\	.	.
.	4F\	.	.
.	4G\	.	.
1FF	2A\	.	.
.	2AA/	2c\	.
=22-	=22-	=22-	=22-
2GG/	2D/	2B-\	.
4DD/	4F\	4A/	.
4.DD/	4.F\	4.d\	.
8DD/	8F\	8d\	.
4AA/	4E\	4c\	.
4FF/	4A\	4f\	.
4GG/	8G\	8e\	.
.	8F\	8d\	.
*custos:AA	*custos:E	*custos:c	*custos:a
!!linebreak:original
=23	=23	=23	=23
4AA/	4E\	8c\	1r
.	.	8A\	.
4DD/	4F\	2d\	.
2AA/	2E\	.	.
.	.	4c#X\	.
2DD/	2D/	2d\	2r
2DD/	2F\	2d\	2a\
=24-	=24-	=24-	=24-
1.FF	2.F\	4cny\	1.a
.	.	4B-\	.
.	.	4A/	.
.	8E\	4G/	.
.	8D\	.	.
.	4C/	2F/	.
.	4D/	.	.
2CC/	2E\	2c\	2g\
=25	=25	=25	=25
2GG/	2D/	2B-\	2g\
4DD/	4D/	4A/	4f\
4.AA/	4.C/	4.A/	4.e\
8AA/	8C/	8A/	8e\
4FF/	4F\	4c\	4a\
4C\	4E\	4c\	4g\
4AA/	4F\	4c\	4a\
=26-	=26-	=26-	=26-
2.BB-/	2.D/	2.d\	4.f\
.	.	.	8e\
.	.	.	4d\
4GG/	4B-\	4d\	2g\
2.AA/	(<1A	[<1c	.
.	.	.	8f\
.	.	.	8e\
.	.	.	[y2f\
4BB-/	.	.	.
=27	=27	=27	=27
!	!	!	!LO:N:xstem:cue
2C\	1G)	1c]	4f\]
.	.	.	8e\
.	.	.	8d\
2CC/	.	.	2e\
1FF	2.F\	2A/	2f\
.	.	4r	2a\
.	4F\	4A/	.
=28-	=28-	=28-	=28-
!	!	!LO:N:acc=#	!
1r	4G\	4Bn\	4g\
.	4A\	4c#X\	4e\
.	4.D/	4.d\	4.f\
.	8D/	8d\	8f\
2r	2.A\	2c#X\	2e\
2FF/	.	4r	4r
.	4A\	4c#\	4f\
=29	=29	=29	=29
4GG/	4G\	4B-\	4e\
4AA/	4E\	4A/	4c#X/
4.DD/	4.F\	4.A/	4.d\
8DD/	8F\	8A/	8d\
1AA	1E	1A	1c#X
=30-	=30-	=30-	=30-
*M3/2	*M3/2	*M3/2	*M3/2
1.FF	1.A	1.c	1.f
2FF/	2A\	2c\	2f\
1FF	1A	1c	1f
=31-	=31-	=31-	=31-
0C	0G	0c	0e
1AA	1A	1c	1f
=32	=32	=32	=32
0GG	0D	0B-	0g
1FF	1F	1A	1a
=33-	=33-	=33-	=33-
1.CC	1.E	1.c	1.g
2CC/	2E\	2c\	2g\
1CC	1E	1c	1g
=34-	=34-	=34-	=34-
0GG	0D	0B-	0g
1GG	1D	1B-	1d
=35-	=35-	=35-	=35-
0DD	0D	0A	0f
1AA	1C	1A	1e
=36	=36	=36	=36
*col	*	*col	*
0FF	1.F	0c	1.a
.	2E\	.	2g\
1BB-	1D	1d	2f\
.	.	.	2d\
=37-	=37-	=37-	=37-
1GG	1B-	1d	0g
0DD	0A	0d	.
.	.	.	1f#X
*Xcol	*	*Xcol	*
=38-	=38-	=38-	=38-
!	!	!LO:N:acc=#	!
0.GG	0.G	0.Bn	0.g
=39-	=39-	=39-	=39-
1.CC	1.E	1.c	1.g
2CC/	2E\	2c\	2g\
1CC	1E	1c	1g
=40	=40	=40	=40
1.FF	1.F	1.c	1.a
2FF/	2C/	2c\	2a\
1FF	1D	1A	1f
=41-	=41-	=41-	=41-
0CC	0E	0G	0g
1GG	1D	1B-	1d
=42-	=42-	=42-	=42-
0DD	0D	0A	0f
1AA	1C	1A	1e
=43-	=43-	=43-	=43-
*	*col	*col	*
1.EE	0G	0c	1.g
2FF/	.	.	2f\
1GG	1G	1B-	2e\
.	.	.	2d\
=44	=44	=44	=44
1DD	1F	1A	1.d
0AA	0E	0A	.
.	.	.	4c#X/
!	!	!	!LO:SIC:v:s=4Bn/
.	.	.	4B-/
.	.	.	1c#
*	*Xcol	*Xcol	*
=45-	=45-	=45-	=45-
*M2/1	*M2/1	*M2/1	*M2/1
*met(C|)	*met(C|)	*met(C|)	*met(C|)
2DD/	2D/	2A/	2d\
2.DD/	2.F\	2.A/	2.a\
4DD/	4F\	4A/	4a\
2DD/	2F\	2d\	2a\
=46-	=46-	=46-	=46-
2GG/	2D/	2B-\	2g\
2GG/	2D/	2B-\	2g\
=	=	=	=
1BB-	2.D/	4B-\	1f
.	.	4c\	.
.	.	4d\	.
.	4C/	4e\	.
=47-	=47-	=47-	=47-
2BB-/	4D/	4f\	2d\
.	4E\	4e\	.
2FF/	4F\	4d\	2a\
.	4E\	4c\	.
2GG/	2D/	4B-\	2d\
.	.	4A\	.
2GG/	2D/	2B-\	2g\
=48-	=48-	=48-	=48-
!LO:TX:t=P:problem=brak początku łuku	!	!	!
[1GG	1D	2B-\	2.b-\
.	.	2G/	.
.	.	.	4a\
*custos:GG	*custos:D	*custos:B	*custos:g
!!pagebreak:original
=	=	=	=
1GG]	2D/	2B-\	4g\
.	.	.	4d\
.	2D/	2B-\	4g\
.	.	.	4a\
=49-	=49-	=49-	=49-
1GG	1D	4G/	2b-\
.	.	4A/	.
.	.	4B-\	1g
.	.	4G/	.
0.DDl	0.D	1A	.
.	.	.	4f#X\
.	.	.	4e\
=50-	=50-	=50-	=50-
.	.	0Al	0f#Xl
==	==	==	==
*-	*-	*-	*-
!!!system-decoration: [s1,s2,s3,s4]
!!!RDF**kern: l = terminal long
!!!RDF**kern: i = editorial accidental
!!!RDF**kern: > = above
!!!RDF**kern: < = below
!!!ENC: Katarzyna Serwa
!!!END: 2021-12-25
!!!ENC: Anastazja Marusiak
!!!END: 2021-12-21
